X:20
T:Bonnie Kate (second version) (reel) 
B:CRE1.176 (Cait Bhoidheach - an dara leagan)
F:file ID: cre.1/020bonny_k2
M:C
Q:180
R:reel
K:D
A2dA BdAF|DFAF EA,CE|DFAF GBed|ceAc d3B|
"5"ADFA (3Bcd AF|DFAF EA,CE|DFAF GBed|ceAB d3 B/c/|
"9"(3dcB (3cBA BAGF|(3GFE (3FED EA,CE| DFAF GBed|ceAc ~d3B|
"13"AF (3FFF DF (3FFF|AF (3FFF EA,CE|DFAF GBed|ceAc defg||
"17"(3aba fd Adef|g3e cdef|(3gag fa gbag|fgfe defg|
"21"(3aba fd Adef|g3e cdef|g2-gf gbag|fgfe defg|
"25"(3aba fd Adef|g3e cdef|(3gag fa gbag|fgfe defg|
"29"(3aba fd Adfd|Adfd cdef|gfed cbag|fgfe dcdB||
"33"AFGA (3BcB AG|EA,DF EA,CE|DFAF GBed|ceAc dcdB|
"37"AF (3FFF DF (3FFF|dF (3FFF EA,CE|DFAF GBed|ceAc d3 B/c/|
"41"(3dcB cA BAGF|(3GFE (3FED EA,CE|DFAF GBed|ceAc d3B|
"45"~A2 df edcB|AGFD EA,CE|DFAF GBed|ceAc defd||
"49"ad (3ddd bd (3ddd|ad (3ddd cdef|(3gag fa gbag|fgfe defd|
"52"ad (3ddd bd (3ddd|ad (3ddd cdef|gfed cbag|fgfe defd|
"56"ad (3ddd bd (3ddd|ad (3ddd cdef|g2-gf gbag|fgfe defd|
"60"ad (3ddd bd (3ddd|ad (3ddd cdef|gfed cbag|fgfe d3 z|]

%%%

